source/img/icon-mail.svg

<svg enable-background="new 0 0 17 13" viewBox="0 0 17 13" xmlns="http://www.w3.org/2000/svg"><path d="m15.6 11.6h-14.2v-5.8h-1.4v7.2h17v-7.2h-1.4zm-15.6-11.6v2.3l8.5 7.1 8.5-7.1v-2.3zm15.6 1.6-7.1 5.9-7.1-5.9v-.2h14.2z"/></svg>

<svg viewBox="0 0 17 13" xmlns="http://www.w3.org/2000/svg"><path d="M15.6 11.6H1.4V5.8H0V13h17V5.8h-1.4zM0 0v2.3l8.5 7.1L17 2.3V0zm15.6 1.6L8.5 7.5 1.4 1.6v-.2h14.2z"/></svg>
